X:2
K:Ador
T:La Tuque Rouge, aka Le Reel des Habitants
M:C|
L:1/8
|:"Am"a2ab agef|"G"gfga gfed|"Am"eaab agef|"Em(G)"gedB "Am"cA A2|
"Am"eaab agef|"G"gfga gfed|"Am"gfge "G"dBGB| "Em"cBAG "Am"A4:|
|:"Am"EAAB AGAB|cded "D"cB c2|"G"DGGA GFGA|BcdB "Em"cBAG|
"Am"A4 A3 B|AGAB "Am(C)"cdef|"G"gfge dBGB|"Em"cBAG "Am"A4:|
%%text 04/23/08 

#include "RightHeader.h"
%%text Set 93, continued
%%scale .9
$SmallLMargin
$SmallRMargin
